common/media/svg/icons/group_full.svg

<?xml version="1.0" encoding="UTF-8" standalone="no"?>
<svg
   xmlns:dc="http://purl.org/dc/elements/1.1/"
   xmlns:cc="http://creativecommons.org/ns#"
   xmlns:rdf="http://www.w3.org/1999/02/22-rdf-syntax-ns#"
   xmlns:svg="http://www.w3.org/2000/svg"
   xmlns="http://www.w3.org/2000/svg"
   xmlns:sodipodi="http://sodipodi.sourceforge.net/DTD/sodipodi-0.dtd"
   xmlns:inkscape="http://www.inkscape.org/namespaces/inkscape"
   version="1.1"
   x="0px"
   y="0px"
   width="32px"
   height="32px"
   viewBox="0 0 32 32"
   enable-background="new 0 0 32 32"
   xml:space="preserve"
   id="svg2"
   >

<metadata><rdf:RDF>

   <cc:Work rdf:about="">
   <dc:format>image/svg+xml</dc:format>
   <dc:type rdf:resource="http://purl.org/dc/dcmitype/StillImage" />
   <dc:title>PICOL Icon</dc:title>
   <dc:date>2009-03-15</dc:date>
   <dc:creator><cc:Agent><dc:title>Melih Bilgil</dc:title></cc:Agent></dc:creator>
   <dc:rights><cc:Agent><dc:title>Creative Commons BY-SA</dc:title></cc:Agent></dc:rights>
   <dc:publisher><cc:Agent><dc:title>PICOL - Pictorial Communication Language</dc:title></cc:Agent></dc:publisher>
   <dc:identifier>http://blog.picol.org</dc:identifier>
   <dc:source>http://blog.picol.org</dc:source>
   <dc:language>en</dc:language>
   <dc:subject>
     <rdf:Bag>
       <rdf:li>PICOL</rdf:li>
       <rdf:li>icon</rdf:li>
       <rdf:li>icons</rdf:li>
       <rdf:li>sign</rdf:li>
       <rdf:li>GUI</rdf:li>
       <rdf:li>vector</rdf:li>
       <rdf:li>interface</rdf:li>
     </rdf:Bag>
   </dc:subject>
   <dc:description>This is one icon out of all PICOL icons</dc:description>
   <dc:contributor>
       <cc:Agent><dc:title>Melih Bilgil (www.lonja.de), Christopher Adjei (www.boffer.net)</dc:title></cc:Agent></dc:contributor>
   <cc:license rdf:resource="http://creativecommons.org/licenses/by-sa/3.0/" /></cc:Work>
   <cc:License rdf:about="http://creativecommons.org/licenses/by-sa/3.0/">
       <cc:permits rdf:resource="http://creativecommons.org/ns#Reproduction" />
       <cc:permits rdf:resource="http://creativecommons.org/ns#Distribution" />
       <cc:requires rdf:resource="http://creativecommons.org/ns#Notice" />
       <cc:requires rdf:resource="http://creativecommons.org/ns#Attribution" />
       <cc:permits rdf:resource="http://creativecommons.org/ns#DerivativeWorks" />
       <cc:requires rdf:resource="http://creativecommons.org/ns#ShareAlike" /></cc:License>

   </rdf:RDF>
</metadata>

<g id="background">
	<rect fill="none" width="32" height="32"/>
</g>
<g id="group_x5F_full">
	<g>
		<path d="M8,20c0-2,0-10,0-10s0.005-0.45,0.239-1C6.16,9,4,9,4,9s-2,0-2,2v7c0,2,2,2,2,2v10h6v-8C10,22,8,22,8,20z M8,8
			c0.52,0,1.001-0.144,1.427-0.376c0.059-0.036,0.125-0.068,0.188-0.103C10.446,6.988,11,6.061,11,5c0-1.657-1.343-3-3-3
			S5,3.343,5,5S6.343,8,8,8z M28,9h-4.238C23.995,9.55,24,10,24,10s0,8,0,10s-2,2-2,2v8h6V20c0,0,2,0,2-2s0-7,0-7S30,9,28,9z
			 M22.38,7.519c0.065,0.035,0.134,0.068,0.194,0.105C23,7.856,23.48,8,24,8c1.657,0,3-1.343,3-3s-1.343-3-3-3s-3,1.343-3,3
			C21,6.059,21.552,6.985,22.38,7.519z M16,8c1.657,0,3-1.343,3-3s-1.343-3-3-3s-3,1.343-3,3S14.343,8,16,8z M22,11c0,0,0-2-2-2
			c-0.5,0-8,0-8,0s-2,0-2,2v7c0,2,2,2,2,2v10h8V20c0,0,2,0,2-2S22,11,22,11z"/>
	</g>
</g>
</svg>

<?xml version="1.0" encoding="UTF-8" standalone="no"?>
<svg
   xmlns:dc="http://purl.org/dc/elements/1.1/"
   xmlns:cc="http://creativecommons.org/ns#"
   xmlns:rdf="http://www.w3.org/1999/02/22-rdf-syntax-ns#"
   xmlns:svg="http://www.w3.org/2000/svg"
   xmlns="http://www.w3.org/2000/svg"
   xmlns:sodipodi="http://sodipodi.sourceforge.net/DTD/sodipodi-0.dtd"
   xmlns:inkscape="http://www.inkscape.org/namespaces/inkscape"
   version="1.1"
   x="0px"
   y="0px"
   width="32px"
   height="32px"
   viewBox="0 0 32 32"
   enable-background="new 0 0 32 32"
   xml:space="preserve"
   id="svg2"
   inkscape:version="0.48.4 r9939"
   sodipodi:docname="group_full.svg"><defs
     id="defs3314" /><sodipodi:namedview
     pagecolor="#ffffff"
     bordercolor="#666666"
     borderopacity="1"
     objecttolerance="10"
     gridtolerance="10"
     guidetolerance="10"
     inkscape:pageopacity="0"
     inkscape:pageshadow="2"
     inkscape:window-width="640"
     inkscape:window-height="480"
     id="namedview3312"
     showgrid="false"
     inkscape:zoom="7.375"
     inkscape:cx="16"
     inkscape:cy="16"
     inkscape:window-x="53"
     inkscape:window-y="24"
     inkscape:window-maximized="0"
     inkscape:current-layer="svg2" /><metadata
     id="metadata3302"><rdf:RDF><cc:Work
         rdf:about=""><dc:format>image/svg+xml</dc:format><dc:type
           rdf:resource="http://purl.org/dc/dcmitype/StillImage" /><dc:title>PICOL Icon</dc:title><dc:date>2009-03-15</dc:date><dc:creator><cc:Agent><dc:title>Melih Bilgil</dc:title></cc:Agent></dc:creator><dc:rights><cc:Agent><dc:title>Creative Commons BY-SA</dc:title></cc:Agent></dc:rights><dc:publisher><cc:Agent><dc:title>PICOL - Pictorial Communication Language</dc:title></cc:Agent></dc:publisher><dc:identifier>http://blog.picol.org</dc:identifier><dc:source>http://blog.picol.org</dc:source><dc:language>en</dc:language><dc:subject><rdf:Bag><rdf:li>PICOL</rdf:li><rdf:li>icon</rdf:li><rdf:li>icons</rdf:li><rdf:li>sign</rdf:li><rdf:li>GUI</rdf:li><rdf:li>vector</rdf:li><rdf:li>interface</rdf:li></rdf:Bag></dc:subject><dc:description>This is one icon out of all PICOL icons</dc:description><dc:contributor><cc:Agent><dc:title>Melih Bilgil (www.lonja.de), Christopher Adjei (www.boffer.net)</dc:title></cc:Agent></dc:contributor><cc:license
           rdf:resource="http://creativecommons.org/licenses/by-sa/3.0/" /></cc:Work><cc:License
         rdf:about="http://creativecommons.org/licenses/by-sa/3.0/"><cc:permits
           rdf:resource="http://creativecommons.org/ns#Reproduction" /><cc:permits
           rdf:resource="http://creativecommons.org/ns#Distribution" /><cc:requires
           rdf:resource="http://creativecommons.org/ns#Notice" /><cc:requires
           rdf:resource="http://creativecommons.org/ns#Attribution" /><cc:permits
           rdf:resource="http://creativecommons.org/ns#DerivativeWorks" /><cc:requires
           rdf:resource="http://creativecommons.org/ns#ShareAlike" /></cc:License></rdf:RDF></metadata><g
     id="background"><rect
       fill="none"
       width="32"
       height="32"
       id="rect3305" /></g><path
     id="path3310"
     d="M 8,20 C 8,18 8,10 8,10 8,10 8.005,9.55 8.239,9 6.16,9 4,9 4,9 4,9 2,9 2,11 v 7 c 0,2 2,2 2,2 v 10 h 6 v -8 c 0,0 -2,0 -2,-2 z M 8,8 C 8.52,8 9.001,7.856 9.427,7.624 9.486,7.588 9.552,7.556 9.615,7.521 10.446,6.988 11,6.061 11,5 11,3.343 9.657,2 8,2 6.343,2 5,3.343 5,5 5,6.657 6.343,8 8,8 z M 28,9 H 23.762 C 23.995,9.55 24,10 24,10 c 0,0 0,8 0,10 0,2 -2,2 -2,2 v 8 h 6 V 20 c 0,0 2,0 2,-2 0,-2 0,-7 0,-7 0,0 0,-2 -2,-2 z M 22.38,7.519 c 0.065,0.035 0.134,0.068 0.194,0.105 C 23,7.856 23.48,8 24,8 25.657,8 27,6.657 27,5 27,3.343 25.657,2 24,2 c -1.657,0 -3,1.343 -3,3 0,1.059 0.552,1.985 1.38,2.519 z M 16,8 c 1.657,0 3,-1.343 3,-3 0,-1.657 -1.343,-3 -3,-3 -1.657,0 -3,1.343 -3,3 0,1.657 1.343,3 3,3 z m 6,3 c 0,0 0,-2 -2,-2 -0.5,0 -8,0 -8,0 0,0 -2,0 -2,2 v 7 c 0,2 2,2 2,2 v 10 h 8 V 20 c 0,0 2,0 2,-2 0,-2 0,-7 0,-7 z" /></svg>
